images/mGOOGL.svg

<svg height="250" viewBox="0 0 250 250" width="250" xmlns="http://www.w3.org/2000/svg"><path d="m223.039062 124.707031c0-6.484375-.527343-13.003906-1.648437-19.382812h-89.964844v36.730469h51.519531c-2.136718 11.84375-9.007812 22.324218-19.066406 28.984374v23.832032h30.738282c18.046874-16.613282 28.421874-41.144532 28.421874-70.164063zm0 0" fill="#4285f4"/><path d="m131.425781 217.894531c25.726563 0 47.417969-8.445312 63.226563-23.023437l-30.738282-23.832032c-8.550781 5.816407-19.589843 9.109376-32.453124 9.109376-24.882813 0-45.980469-16.785157-53.550782-39.355469h-31.71875v24.566406c16.195313 32.210937 49.171875 52.535156 85.234375 52.535156zm0 0" fill="#34a853"/><path d="m77.875 140.792969c-3.996094-11.847657-3.996094-24.671875 0-36.519531v-24.566407h-31.683594c-13.527344 26.949219-13.527344 58.703125 0 85.652344zm0 0" fill="#fbbc04"/><path d="m131.425781 64.882812c13.597657-.210937 26.742188 4.90625 36.589844 14.296876l27.230469-27.230469c-17.242188-16.191407-40.128906-25.09375-63.820313-24.8125-36.0625 0-69.039062 20.328125-85.234375 52.570312l31.683594 24.566407c7.535156-22.605469 28.667969-39.390626 53.550781-39.390626zm0 0" fill="#ea4335"/></svg>

<svg xmlns="http://www.w3.org/2000/svg" xmlns:xlink="http://www.w3.org/1999/xlink" width="250px" height="250px" viewBox="0 0 250 250" version="1.1">
<g id="surface1">
<path style=" stroke:none;fill-rule:nonzero;fill:rgb(25.882354%,52.156866%,95.686275%);fill-opacity:1;" d="M 223.039062 124.707031 C 223.039062 118.222656 222.511719 111.703125 221.390625 105.324219 L 131.425781 105.324219 L 131.425781 142.054688 L 182.945312 142.054688 C 180.808594 153.898438 173.9375 164.378906 163.878906 171.039062 L 163.878906 194.871094 L 194.617188 194.871094 C 212.664062 178.257812 223.039062 153.726562 223.039062 124.707031 Z M 223.039062 124.707031 "/>
<path style=" stroke:none;fill-rule:nonzero;fill:rgb(20.392157%,65.882355%,32.549021%);fill-opacity:1;" d="M 131.425781 217.894531 C 157.152344 217.894531 178.84375 209.449219 194.652344 194.871094 L 163.914062 171.039062 C 155.363281 176.855469 144.324219 180.148438 131.460938 180.148438 C 106.578125 180.148438 85.480469 163.363281 77.910156 140.792969 L 46.191406 140.792969 L 46.191406 165.359375 C 62.386719 197.570312 95.363281 217.894531 131.425781 217.894531 Z M 131.425781 217.894531 "/>
<path style=" stroke:none;fill-rule:nonzero;fill:rgb(98.431373%,73.725492%,1.568628%);fill-opacity:1;" d="M 77.875 140.792969 C 73.878906 128.945312 73.878906 116.121094 77.875 104.273438 L 77.875 79.707031 L 46.191406 79.707031 C 32.664062 106.65625 32.664062 138.410156 46.191406 165.359375 Z M 77.875 140.792969 "/>
<path style=" stroke:none;fill-rule:nonzero;fill:rgb(91.764706%,26.274511%,20.784314%);fill-opacity:1;" d="M 131.425781 64.882812 C 145.023438 64.671875 158.167969 69.789062 168.015625 79.179688 L 195.246094 51.949219 C 178.003906 35.757812 155.117188 26.855469 131.425781 27.136719 C 95.363281 27.136719 62.386719 47.464844 46.191406 79.707031 L 77.875 104.273438 C 85.410156 81.667969 106.542969 64.882812 131.425781 64.882812 Z M 131.425781 64.882812 "/>
</g>
</svg>
